X: 13
T: All the Go
M:3/8
L:1/8
B:Goulding & Co. - Twenty Four Country Dances for the Year 1808 (London)
N:"With proper Tune & Directions to each Dance (as they may be
N:performed at Court, Bath, and all Public Assemblys."
Z:Transcribed and edited by Flynn Titford-Mock
Z:abcs's:AK/Fiddler's Companion
K:Bb
d|B2 FB DBFB|B2 (d/c/B) Accd|B2 FB dBFB|(A/B/c) c>e dB B:|
|:d|BBdB fBdB|BBdB Accd|BBdB fBdB|A/B/c ce dBBd|
BBdB fBdB|BBdB Accd|dbca Bg BgAf|fgbf dB B:||

%%sep 1 1 500
